static/img/showcase/didsign_light.svg

<?xml version="1.0" encoding="UTF-8" standalone="no"?>
<!DOCTYPE svg PUBLIC "-//W3C//DTD SVG 1.1//EN" "http://www.w3.org/Graphics/SVG/1.1/DTD/svg11.dtd">
<svg width="100%" height="100%" viewBox="0 0 381 118" version="1.1" xmlns="http://www.w3.org/2000/svg" xmlns:xlink="http://www.w3.org/1999/xlink" xml:space="preserve" xmlns:serif="http://www.serif.com/" style="fill-rule:evenodd;clip-rule:evenodd;stroke-linejoin:round;stroke-miterlimit:2;">
    <g id="Artboard1" transform="matrix(1,0,0,1,-9.83,-11.3994)">
        <rect x="9.83" y="11.399" width="380.346" height="117.143" style="fill:none;"/>
        <path d="M178,103C174.699,103.008 171.438,102.273 168.46,100.85C165.961,99.703 163.717,98.067 161.86,96.04C161.679,95.83 161.58,95.561 161.58,95.284C161.58,94.938 161.734,94.61 162,94.39L165.91,91C166.376,90.611 167.07,90.641 167.5,91.07C170.76,94.257 174.31,95.853 178.15,95.86C180.351,95.965 182.536,95.441 184.45,94.35C185.989,93.425 186.901,91.724 186.82,89.93C186.811,88.418 186.186,86.973 185.09,85.93C184.068,84.845 182.863,83.948 181.53,83.28C180.31,82.7 178.513,81.957 176.14,81.05C171.4,79.28 167.8,77.3 165.37,75.11C162.931,72.904 161.593,69.726 161.72,66.44C161.607,62.893 163.27,59.514 166.15,57.44C169.435,55.117 173.399,53.946 177.42,54.11C183.031,53.916 188.462,56.151 192.31,60.24C192.505,60.452 192.614,60.73 192.614,61.018C192.614,61.364 192.458,61.692 192.19,61.91L188.45,65.03C187.99,65.4 187.32,65.374 186.89,64.97C184.312,62.529 180.88,61.186 177.33,61.23C175.351,61.13 173.385,61.606 171.67,62.6C170.33,63.402 169.526,64.869 169.57,66.43C169.562,67.313 169.798,68.182 170.25,68.94C170.878,69.854 171.728,70.594 172.72,71.09C173.9,71.76 174.85,72.26 175.55,72.59C176.25,72.92 177.55,73.46 179.43,74.19C184.35,75.963 188.107,77.963 190.7,80.19C193.293,82.417 194.587,85.583 194.58,89.69C194.743,93.46 193.072,97.085 190.1,99.41C187.12,101.803 183.087,103 178,103Z" style="fill-rule:nonzero;"/>
        <path d="M207.66,45.33C206.712,46.26 205.428,46.769 204.1,46.74C202.777,46.771 201.501,46.24 200.59,45.28C199.237,43.884 198.784,41.837 199.42,40C199.473,39.803 199.554,39.614 199.66,39.44C200.831,37.185 203.521,36.135 205.91,37C206.113,37.059 206.305,37.15 206.48,37.27C208.111,38.212 209.119,39.957 209.12,41.84C209.145,43.156 208.615,44.424 207.66,45.33ZM200.18,100L200.18,57.13C200.18,56.088 201.038,55.23 202.08,55.23L206.22,55.23C207.262,55.23 208.12,56.088 208.12,57.13L208.12,100C208.12,101.042 207.262,101.9 206.22,101.9L202.08,101.9C201.038,101.9 200.18,101.042 200.18,100Z" style="fill-rule:nonzero;"/>
        <path d="M232,120.15L229.56,116.15C229.445,115.966 229.385,115.754 229.385,115.537C229.385,114.932 229.857,114.424 230.46,114.38C236.18,113.91 240.22,112.78 242.55,111C245.093,109.112 246.547,106.085 246.43,102.92L246.43,100.25C246.422,99.625 245.905,99.116 245.28,99.116C244.986,99.116 244.703,99.228 244.49,99.43C241.698,101.87 238.075,103.148 234.37,103C229.085,103.086 224.047,100.725 220.73,96.61C217.11,92.35 215.3,86.327 215.3,78.54C215.3,71 217.08,65.053 220.64,60.7C224.011,56.438 229.208,54.014 234.64,54.17C238.206,54.062 241.704,55.185 244.54,57.35C244.743,57.507 244.993,57.593 245.25,57.593C245.886,57.593 246.41,57.069 246.41,56.433C246.41,56.432 246.41,56.431 246.41,56.43C246.41,55.794 246.934,55.27 247.57,55.27L253.18,55.27C253.183,55.27 253.187,55.27 253.19,55.27C253.826,55.27 254.35,55.794 254.35,56.43L254.35,100C254.35,107.12 252.447,112.26 248.64,115.42C244.967,118.48 239.777,120.26 233.07,120.76C232.628,120.771 232.215,120.536 232,120.15ZM236,95.57C238.062,95.532 240.072,94.915 241.8,93.79C243.616,92.664 245.138,91.121 246.24,89.29C246.351,89.098 246.409,88.881 246.41,88.66L246.41,68C246.413,67.769 246.347,67.543 246.22,67.35C245.093,65.616 243.558,64.184 241.75,63.18C240.023,62.097 238.038,61.493 236,61.43C231.873,61.43 228.727,62.907 226.56,65.86C224.393,68.813 223.317,73.027 223.33,78.5C223.33,83.793 224.5,87.96 226.84,91C228.953,93.935 232.384,95.647 236,95.57Z" style="fill-rule:nonzero;"/>
        <path d="M291.72,101.86C291.717,101.86 291.713,101.86 291.71,101.86C291.074,101.86 290.55,101.336 290.55,100.7L290.55,73.7C290.55,69.513 289.653,66.427 287.86,64.44C285.973,62.407 283.281,61.308 280.51,61.44C273.33,61.44 269.74,65.457 269.74,73.49L269.74,100.7C269.74,101.336 269.216,101.86 268.58,101.86L263,101.86C262.997,101.86 262.993,101.86 262.99,101.86C262.354,101.86 261.83,101.336 261.83,100.7L261.83,56.39C261.83,55.754 262.354,55.23 262.99,55.23C262.993,55.23 262.997,55.23 263,55.23L268.61,55.23C269.246,55.23 269.77,55.754 269.77,56.39L269.77,56.931C269.77,57.567 270.294,58.091 270.93,58.091C271.223,58.091 271.505,57.98 271.72,57.78C274.487,55.304 278.109,53.995 281.82,54.13C287.3,54.13 291.453,55.797 294.28,59.13C297.107,62.463 298.51,67.753 298.49,75L298.49,100.7C298.49,101.336 297.966,101.86 297.33,101.86L291.72,101.86Z" style="fill-rule:nonzero;"/>
        <path d="M9.83,41.23C9.83,39.491 11.261,38.06 13,38.06L33.38,38.06C38.258,37.97 43.102,38.885 47.61,40.75C51.444,42.32 54.821,44.831 57.43,48.05C59.814,51.097 61.636,54.544 62.81,58.23C64.013,62.037 64.614,66.008 64.59,70C64.592,72.995 64.257,75.98 63.59,78.9C62.873,81.905 61.735,84.794 60.21,87.48C58.666,90.261 56.661,92.76 54.28,94.87C51.63,97.126 48.576,98.86 45.28,99.98C41.35,101.349 37.212,102.025 33.05,101.98L13,101.98C11.261,101.98 9.83,100.549 9.83,98.81L9.83,41.23ZM34.47,88.71C39.703,88.71 43.627,86.84 46.24,83.1C48.891,79.254 50.266,74.67 50.17,70C50.268,65.338 48.946,60.754 46.38,56.86C44.015,53.174 39.856,51.014 35.48,51.2L26.87,51.2C25.131,51.2 23.7,52.631 23.7,54.37L23.7,85.54C23.7,87.279 25.131,88.71 26.87,88.71L34.47,88.71Z" style="fill-rule:nonzero;"/>
        <path d="M73.21,98.77L73.21,41.23C73.21,39.491 74.641,38.06 76.38,38.06L83.92,38.06C85.659,38.06 87.09,39.491 87.09,41.23L87.09,98.77C87.09,100.509 85.659,101.94 83.92,101.94L76.38,101.94C74.641,101.94 73.21,100.509 73.21,98.77Z" style="fill-rule:nonzero;"/>
        <path d="M96.71,41.23C96.71,39.491 98.141,38.06 99.88,38.06L120.26,38.06C125.138,37.97 129.982,38.885 134.49,40.75C138.324,42.32 141.701,44.831 144.31,48.05C146.694,51.097 148.516,54.544 149.69,58.23C150.893,62.037 151.494,66.008 151.47,70C151.472,72.995 151.137,75.98 150.47,78.9C149.753,81.905 148.615,84.794 147.09,87.48C145.546,90.261 143.541,92.76 141.16,94.87C138.51,97.126 135.456,98.86 132.16,99.98C128.23,101.349 124.092,102.025 119.93,101.98L99.93,101.98C98.191,101.98 96.76,100.549 96.76,98.81L96.71,41.23ZM121.35,88.71C126.577,88.71 130.503,86.84 133.13,83.1C135.773,79.251 137.144,74.668 137.05,70C137.148,65.338 135.826,60.754 133.26,56.86C130.895,53.174 126.736,51.014 122.36,51.2L113.75,51.2C112.011,51.2 110.58,52.631 110.58,54.37L110.58,85.54C110.58,87.279 112.011,88.71 113.75,88.71L121.35,88.71Z" style="fill-rule:nonzero;"/>
        <path d="M387,66.16C388.735,66.16 390.165,64.735 390.17,63L390.17,42.61C390.259,37.729 389.343,32.882 387.48,28.37C385.907,24.54 383.397,21.167 380.18,18.56C377.135,16.174 373.687,14.352 370,13.18C366.193,11.977 362.222,11.377 358.23,11.4C355.235,11.392 352.249,11.728 349.33,12.4C346.325,13.117 343.436,14.255 340.75,15.78C337.969,17.324 335.47,19.329 333.36,21.71C331.096,24.355 329.361,27.41 328.25,30.71C326.881,34.64 326.205,38.778 326.25,42.94L326.25,63C326.25,64.739 327.681,66.17 329.42,66.17L351.26,66.17L351.26,73.85L329.45,73.85C327.719,73.85 326.291,75.269 326.28,77L326.28,97C326.235,101.162 326.911,105.3 328.28,109.23C329.391,112.53 331.126,115.585 333.39,118.23C335.5,120.611 337.999,122.616 340.78,124.16C343.466,125.685 346.355,126.823 349.36,127.54C352.279,128.212 355.265,128.548 358.26,128.54C362.239,128.58 366.2,127.999 370,126.82C373.687,125.648 377.135,123.826 380.18,121.44C383.397,118.833 385.907,115.46 387.48,111.63C389.343,107.118 390.259,102.271 390.17,97.39L390.17,77C390.165,75.265 388.735,73.84 387,73.84L365.16,73.84L365.16,66.16L387,66.16ZM373.86,87.72C375.586,87.731 377,89.154 377,90.88L377,99.49C377.185,103.869 375.026,108.03 371.34,110.4C367.442,112.956 362.86,114.274 358.2,114.18C353.531,114.276 348.948,112.905 345.1,110.26C341.36,107.64 339.49,103.717 339.49,98.49L339.49,90.88C339.49,89.146 340.916,87.72 342.65,87.72C342.653,87.72 342.657,87.72 342.66,87.72L351.26,87.72L351.26,98.72C351.26,100.459 352.691,101.89 354.43,101.89L362,101.89C363.739,101.89 365.17,100.459 365.17,98.72L365.17,87.72L373.86,87.72ZM342.69,52.28C342.687,52.28 342.683,52.28 342.68,52.28C340.946,52.28 339.52,50.854 339.52,49.12L339.52,41.51C339.52,36.283 341.39,32.36 345.13,29.74C348.978,27.095 353.561,25.724 358.23,25.82C362.89,25.726 367.472,27.044 371.37,29.6C375.045,31.977 377.192,36.137 377,40.51L377,49.12C377,50.854 375.574,52.28 373.84,52.28C373.837,52.28 373.833,52.28 373.83,52.28L365.13,52.28L365.13,41.23C365.13,39.506 363.724,38.082 362,38.06L354.47,38.06C352.731,38.06 351.3,39.491 351.3,41.23L351.3,52.28L342.69,52.28Z" style="fill:rgb(178,2,48);fill-rule:nonzero;"/>
    </g>
</svg>

<svg id="a4903061-0e52-4524-8d2c-ba323328b5f1" data-name="Ebene 1" xmlns="http://www.w3.org/2000/svg" viewBox="0 0 400 140"><defs><style>.efe61af7-57d7-43d0-9d99-4c2d4be8b062{fill:#fff;}.f7df3e3c-00ac-470d-9ff9-9ed2bb2a8bfa{fill:#b20230;}</style></defs><rect class="efe61af7-57d7-43d0-9d99-4c2d4be8b062" width="400" height="140"/><path d="M178,103a22,22,0,0,1-9.54-2.15,20.62,20.62,0,0,1-6.6-4.81,1.16,1.16,0,0,1,.14-1.65L165.91,91a1.18,1.18,0,0,1,1.59.07q4.89,4.78,10.65,4.79a11.61,11.61,0,0,0,6.3-1.51,4.9,4.9,0,0,0,2.37-4.42,5.57,5.57,0,0,0-1.73-4,12.71,12.71,0,0,0-3.56-2.65q-1.83-.87-5.39-2.23c-4.74-1.77-8.34-3.75-10.77-5.94a11.11,11.11,0,0,1-3.65-8.67,10.67,10.67,0,0,1,4.43-9,18.23,18.23,0,0,1,11.27-3.33,19.52,19.52,0,0,1,14.89,6.13,1.15,1.15,0,0,1-.12,1.67l-3.74,3.12a1.19,1.19,0,0,1-1.56-.06,13.66,13.66,0,0,0-9.56-3.74,10.26,10.26,0,0,0-5.66,1.37,4.32,4.32,0,0,0-2.1,3.83,4.82,4.82,0,0,0,.68,2.51,6.56,6.56,0,0,0,2.47,2.15c1.18.67,2.13,1.17,2.83,1.5s2,.87,3.88,1.6q7.38,2.66,11.27,6t3.88,9.5a11.7,11.7,0,0,1-4.48,9.72Q185.63,103,178,103Z"/><path d="M207.66,45.33a4.93,4.93,0,0,1-3.56,1.41,4.69,4.69,0,0,1-3.51-1.46A5.16,5.16,0,0,1,199.42,40a2.15,2.15,0,0,1,.24-.56A5.09,5.09,0,0,1,205.91,37a2,2,0,0,1,.57.27,5.28,5.28,0,0,1,2.64,4.57A4.69,4.69,0,0,1,207.66,45.33ZM200.18,100V57.13a1.9,1.9,0,0,1,1.9-1.9h4.14a1.9,1.9,0,0,1,1.9,1.9V100a1.9,1.9,0,0,1-1.9,1.9h-4.14A1.9,1.9,0,0,1,200.18,100Z"/><path d="M232,120.15l-2.44-4a1.16,1.16,0,0,1,.9-1.77c5.72-.47,9.76-1.6,12.09-3.38a9.62,9.62,0,0,0,3.88-8.08v-2.67a1.15,1.15,0,0,0-1.94-.82A14.5,14.5,0,0,1,234.37,103a17.16,17.16,0,0,1-13.64-6.39q-5.43-6.39-5.43-18.07,0-11.31,5.34-17.84a17.22,17.22,0,0,1,14-6.53,15.54,15.54,0,0,1,9.9,3.18,1.16,1.16,0,0,0,1.87-.92h0a1.16,1.16,0,0,1,1.16-1.16h5.61a1.16,1.16,0,0,1,1.17,1.16V100q0,10.68-5.71,15.42-5.51,4.59-15.57,5.34A1.19,1.19,0,0,1,232,120.15Zm4-24.58a11,11,0,0,0,5.8-1.78,13.46,13.46,0,0,0,4.44-4.5,1.27,1.27,0,0,0,.17-.63V68a1.15,1.15,0,0,0-.19-.65,12.66,12.66,0,0,0-4.47-4.17A11.49,11.49,0,0,0,236,61.43q-6.19,0-9.44,4.43T223.33,78.5q0,7.94,3.51,12.5A11,11,0,0,0,236,95.57Z"/><path d="M291.72,101.86a1.16,1.16,0,0,1-1.17-1.16v-27q0-6.28-2.69-9.26a9.42,9.42,0,0,0-7.35-3q-10.77,0-10.77,12.05V100.7a1.16,1.16,0,0,1-1.16,1.16H263a1.16,1.16,0,0,1-1.17-1.16V56.39A1.16,1.16,0,0,1,263,55.23h5.61a1.16,1.16,0,0,1,1.16,1.16v.54a1.16,1.16,0,0,0,1.95.85,14.36,14.36,0,0,1,10.1-3.65q8.22,0,12.46,5T298.49,75V100.7a1.16,1.16,0,0,1-1.16,1.16Z"/><path d="M9.83,41.23A3.17,3.17,0,0,1,13,38.06H33.38a35.51,35.51,0,0,1,14.23,2.69,24.68,24.68,0,0,1,9.82,7.3,32.54,32.54,0,0,1,5.38,10.18A38.29,38.29,0,0,1,64.59,70a39.87,39.87,0,0,1-1,8.9,32.78,32.78,0,0,1-3.38,8.58,28.09,28.09,0,0,1-5.93,7.39,27.56,27.56,0,0,1-9,5.11,36,36,0,0,1-12.23,2H13a3.17,3.17,0,0,1-3.17-3.17ZM34.47,88.71q7.85,0,11.77-5.61A22.28,22.28,0,0,0,50.17,70a23,23,0,0,0-3.79-13.14,12.33,12.33,0,0,0-10.9-5.66H26.87a3.17,3.17,0,0,0-3.17,3.17V85.54a3.17,3.17,0,0,0,3.17,3.17Z"/><path d="M73.21,98.77V41.23a3.17,3.17,0,0,1,3.17-3.17h7.54a3.17,3.17,0,0,1,3.17,3.17V98.77a3.17,3.17,0,0,1-3.17,3.17H76.38A3.17,3.17,0,0,1,73.21,98.77Z"/><path d="M96.71,41.23a3.17,3.17,0,0,1,3.17-3.17h20.38a35.51,35.51,0,0,1,14.23,2.69,24.68,24.68,0,0,1,9.82,7.3,32.54,32.54,0,0,1,5.38,10.18A38.29,38.29,0,0,1,151.47,70a39.87,39.87,0,0,1-1,8.9,32.78,32.78,0,0,1-3.38,8.58,28.09,28.09,0,0,1-5.93,7.39,27.56,27.56,0,0,1-9,5.11,36,36,0,0,1-12.23,2h-20a3.17,3.17,0,0,1-3.17-3.17Zm24.64,47.48q7.84,0,11.78-5.61A22.35,22.35,0,0,0,137.05,70a23,23,0,0,0-3.79-13.14,12.33,12.33,0,0,0-10.9-5.66h-8.61a3.17,3.17,0,0,0-3.17,3.17V85.54a3.17,3.17,0,0,0,3.17,3.17Z"/><path class="f7df3e3c-00ac-470d-9ff9-9ed2bb2a8bfa" d="M387,66.16A3.17,3.17,0,0,0,390.17,63V42.61a35.6,35.6,0,0,0-2.69-14.24,24.71,24.71,0,0,0-7.3-9.81A32.44,32.44,0,0,0,370,13.18a38.33,38.33,0,0,0-11.77-1.78,39.23,39.23,0,0,0-8.9,1,32.78,32.78,0,0,0-8.58,3.38,28.09,28.09,0,0,0-7.39,5.93,27.18,27.18,0,0,0-5.11,9,36,36,0,0,0-2,12.23V63a3.17,3.17,0,0,0,3.17,3.17h21.84v7.68H329.45A3.17,3.17,0,0,0,326.28,77V97a36,36,0,0,0,2,12.23,27.18,27.18,0,0,0,5.11,9,28.09,28.09,0,0,0,7.39,5.93,32.78,32.78,0,0,0,8.58,3.38,39.23,39.23,0,0,0,8.9,1A38.33,38.33,0,0,0,370,126.82a32.44,32.44,0,0,0,10.18-5.38,24.71,24.71,0,0,0,7.3-9.81,35.6,35.6,0,0,0,2.69-14.24V77A3.17,3.17,0,0,0,387,73.84H365.16V66.16ZM373.86,87.72A3.16,3.16,0,0,1,377,90.88v8.61a12.35,12.35,0,0,1-5.66,10.91,23.11,23.11,0,0,1-13.14,3.78,22.32,22.32,0,0,1-13.1-3.92q-5.61-3.93-5.61-11.77V90.88a3.16,3.16,0,0,1,3.17-3.16h8.6v11a3.17,3.17,0,0,0,3.17,3.17H362a3.17,3.17,0,0,0,3.17-3.17v-11ZM342.69,52.28a3.16,3.16,0,0,1-3.17-3.16V41.51q0-7.84,5.61-11.77a22.32,22.32,0,0,1,13.1-3.92,23.11,23.11,0,0,1,13.14,3.78A12.35,12.35,0,0,1,377,40.51v8.61a3.16,3.16,0,0,1-3.17,3.16h-8.7V41.23A3.17,3.17,0,0,0,362,38.06h-7.53a3.17,3.17,0,0,0-3.17,3.17V52.28Z"/></svg>
